Sources/FrostedUI/Resources/Icons.xcassets/headphones16.imageset/headphones-16.svg

<svg width="16" height="16" viewBox="0 0 16 16" fill="none" xmlns="http://www.w3.org/2000/svg" data-fui-icon="true">
  <path
    d="M8 1C10.4485 1 12.2294 1.89362 13.3857 3.2666C14.5242 4.61858 15 6.36565 15 8V11C15 11.026 14.9987 11.0518 14.9961 11.0771C14.9987 11.1344 15 11.1921 15 11.25C15 13.3211 13.3211 15 11.25 15C10.2835 15 9.5 14.2165 9.5 13.25V9.25C9.5 8.2835 10.2835 7.5 11.25 7.5C12.0941 7.5 12.8733 7.77841 13.5 8.24902V8C13.5 6.63452 13.1005 5.25638 12.2393 4.2334C11.3956 3.2316 10.0513 2.5 8 2.5C5.94875 2.5 4.60436 3.2316 3.76074 4.2334C2.89948 5.25638 2.5 6.63452 2.5 8V8.24902C3.12669 7.77841 3.90595 7.5 4.75 7.5C5.7165 7.5 6.5 8.2835 6.5 9.25V13.25C6.5 14.2165 5.7165 15 4.75 15C2.67893 15 1 13.3211 1 11.25C1 11.1921 1.00131 11.1344 1.00391 11.0771C1.00131 11.0518 1 11.026 1 11V8C1 6.36565 1.47575 4.61858 2.61426 3.2666C3.77065 1.89362 5.55148 1 8 1ZM4.75 9C3.50736 9 2.5 10.0074 2.5 11.25C2.5 12.4926 3.50736 13.5 4.75 13.5C4.88807 13.5 5 13.3881 5 13.25V9.25C5 9.11193 4.88807 9 4.75 9ZM11.25 9C11.1119 9 11 9.11193 11 9.25V13.25C11 13.3881 11.1119 13.5 11.25 13.5C12.4926 13.5 13.5 12.4926 13.5 11.25C13.5 10.0074 12.4926 9 11.25 9Z"
    fill="currentColor"
  />
</svg>

<svg xmlns="http://www.w3.org/2000/svg" width="16" height="16" fill="none" data-fui-icon="true" viewBox="0 0 16 16"><path fill="currentColor" d="M8 1c2.448 0 4.23.894 5.386 2.267C14.524 4.619 15 6.366 15 8v3l-.004.077q.004.086.004.173A3.75 3.75 0 0 1 11.25 15a1.75 1.75 0 0 1-1.75-1.75v-4c0-.966.784-1.75 1.75-1.75.844 0 1.623.278 2.25.749V8c0-1.365-.4-2.744-1.26-3.767C11.395 3.232 10.05 2.5 8 2.5s-3.396.732-4.24 1.733C2.9 5.256 2.5 6.635 2.5 8v.249A3.73 3.73 0 0 1 4.75 7.5c.966 0 1.75.784 1.75 1.75v4A1.75 1.75 0 0 1 4.75 15a3.75 3.75 0 0 1-3.746-3.923L1 11V8c0-1.634.476-3.381 1.614-4.733C3.771 1.894 5.551 1 8 1M4.75 9a2.25 2.25 0 0 0 0 4.5.25.25 0 0 0 .25-.25v-4A.25.25 0 0 0 4.75 9m6.5 0a.25.25 0 0 0-.25.25v4c0 .138.112.25.25.25a2.25 2.25 0 0 0 0-4.5"/></svg>
